!!!OTL: MEIN SCHAETZLE IST FEIN
!!!ARE: Europa, Mitteleuropa, Deutschland, Schwaben
!!!SCT: E1017
!!!YEM: Copyright 1995, estate of Helmut Schaffrath.
**kern
*ICvox
*Ivox
*M3/4
*k[]
*C:
{8cc
8a
=1
4g
4g
8f
8d
=2
4c
4G}
{4e
=3
4d
8d
8c
4d
=4
2g}
{8cc
8a
=5
4g
4g
8f
8d
=6
4c
4G}
{4e
=7
4g
8f
8e
8f
8d
=8
2c}
{8cc
8a
=9
4g
4g
8f
8d
=10
4c
4G}
{4e
=11
4d
8d
8c
4d
=12
2g}
{8cc
8a
=13
4g
4g
8f
8d
=14
4c
4G}
{4e
=15
4g
8f
8e
8f
8d
=16
2c}
{8B
8c
=17
4d
4d
8c
8d
=18
4e
4e}
{8d
8e
=19
4f
8f
8e
8f
8e
=20
2g}
{8cc
8a
=21
4g
4g
8f
8d
=22
4c
4G}
{4e
=23
4g
8f
8e
8f
8d
=24
2c}
{8B
8c
=25
4d
4d
8c
8d
=26
4e
4e}
{8d
8e
=27
4f
8f
8e
8f
8e
=28
2g}
{8cc
8a
=29
4g
4g
8f
8d
=30
4c
4G}
{4e
=31
4g
8f
8e
8f
8d
=32
2c}
==
!!!AGN: Tanz - Lied; Liebe
!!!ONB: ESAC (Essen Associative Code) Database: ERK3
!!!AMT: simple triple
!!!AIN: vox
!!!EED: Helmut Schaffrath
!!!EEV: 1.0
*-
